%(New File - College Project)
O0001
(Setup Mill n°13)
N10 G17 G21 G90 G94;
N20 G53 G00 H0 Z -110 M05; (This is the Z 0 position for the machine targeted by this program)
N30 T13;
N40 M06;
N50 G54 S 2500 F 1000 M03;
N60 G43 H13 D13 Z -15;
(Routine)
(External Outline)
N70 G00 X 0 Y 0;
N80 G01 Z -5;
N90 G01 G41 Y 70;
N100 G01 X 5;
N110 G03 X 15 Y 80 I 0 J 10
N120 G01 Y 85;
N130 G03 X 30 Y 100 R 15;
N140 G01 X 70;
N150 G02 X 100 Y 70 R 30;
N160 G01 Y 60;
N170 G01 X 92 Y 50, R 15;
N180 G01 X 100 Y 30;
N190 G01 Y 8;
N200 G01 Y 0, C 8;
N210 G01 X 78, R 15;
N220 G03 X 43 I -17.5 J -9.682458366;
N230 G01 X 10;
N240 G01 Y 10 , C 10;
(Irregular internal cut - rotated)
N250 G01 Z -15;
(Settup for Mill nº12)
N260 G53 G00 H0 Z -110 M05;
N270 T12;
N280 M06;
N290 G54 S2000 M03;
N300 G43 H12 D12 Z -15;
(routine)
N310 G00 X 20 Y 30;
N320 G52 X 20 Y 30;
N330 G01 X 0 Y 0;
N340 G68 R 45;
     G01 X -7.5;
     G02 

(End of Program)
G53 H0 G00 Z -110 M05;
M30;
%